X: 19083
T: Irish Girl, The
R: strathspey
M: 4/4
K: Dmajor
(3cBA|F2 F>E D>E (3FED|E>A (3AAA E>A^G>A|F>GF>E D>EF<A|(3Bcd e>c d>cB>A|
F>GF>E D2 F>D|E>A^G>A A,>ce>G|F2 F>E D2 (3FGA|B>de>g f<d d2||
f<dd>c d2 a>f|e>dc>d e2 (3efg|f<dd>c d>fa>f|g>be>g f<d d2|
f<d d2 d>fa>f|e>dc>d e>fg>a|d<fa>f (3gag (3bag|f<ae<c d2||

